dist/img/svg/partners__slide__6.svg

<svg width="181" height="53" viewBox="0 0 181 53" fill="none" xmlns="http://www.w3.org/2000/svg">
<g opacity="0.7">
<path fill-rule="evenodd" clip-rule="evenodd" d="M25.34 6.1135H25.17C25 6.02544 24.915 6.02544 24.83 5.93738L25.34 5.58513L25.85 5.93738C25.765 6.02544 25.595 6.02544 25.51 6.1135H25.34ZM24.32 4.79256C24.32 4.88063 24.235 5.49706 24.745 5.84932L24.915 5.23288L24.32 4.79256ZM26.36 4.79256L25.765 5.23288L25.935 5.84932C26.36 5.49706 26.36 4.96869 26.36 4.79256ZM27.125 19.411C27.125 18.6184 26.7 18.002 26.105 17.7378L26.02 17.6497C25.765 17.5616 25.765 17.2094 25.765 17.2094L26.275 15.8885C26.19 15.5362 25.85 15.4481 25.85 15.4481V15.0959C25.85 15.0959 26.19 14.6556 26.105 14.0391C26.105 13.9511 25.68 7.69863 25.595 6.99413C25.765 6.90607 25.85 6.72994 25.85 6.55382V6.37769C27.125 5.67319 26.53 4.44031 26.275 4.26419L26.19 4.35225C26.275 4.35225 26.36 4.52838 26.445 4.7045H25.68L25.34 4L25.085 4.79256H24.32C24.405 4.61644 24.49 4.44031 24.575 4.44031L24.49 4.35225C24.235 4.52838 23.555 5.67319 24.915 6.46575V6.64188C24.915 6.818 25 6.99413 25.17 7.08219C25.085 7.69863 24.66 14.0391 24.66 14.1272C24.575 14.7436 24.83 15.184 24.83 15.184V15.4481C24.83 15.4481 24.49 15.5362 24.405 15.8885C24.915 17.2094 24.915 17.2094 24.915 17.2094C24.915 17.2094 24.915 17.5616 24.66 17.6497C23.98 17.9139 23.47 18.6184 23.47 19.411V20.908H22.705V23.2857H27.89V20.908H27.125V19.411ZM26.445 45.0372C26.7 45.0372 26.955 45.0372 27.295 45.0372V24.2544H26.445V45.0372ZM40.47 32.6204V48.0313C40.98 48.2074 41.49 48.4716 42 48.7358V32.6204H40.47ZM37.495 32.6204H35.2V46.2701C36.73 46.7104 38.26 47.1507 39.705 47.7671V31.2114H37.495V32.6204ZM30.865 45.3894C32.055 45.5656 33.16 45.7417 34.265 46.0059V37.728H30.865V45.3894ZM28.06 45.1252C28.74 45.2133 29.335 45.2133 30.015 45.3014V24.2544H28.06V45.1252ZM12.59 31.2114H10.295V47.9433C11.74 47.3268 13.27 46.7984 14.8 46.4462V32.6204H12.59V31.2114ZM15.735 46.182C16.925 45.9178 18.115 45.6536 19.39 45.4775V37.728H15.735V46.182ZM8 49C8.51 48.7358 9.02 48.4716 9.53 48.2955V32.6204H8V49ZM24.915 44.9491C25.085 44.9491 25.17 44.9491 25.34 44.9491C25.51 44.9491 25.595 44.9491 25.765 44.9491V24.2544H24.915V44.9491ZM20.325 36.7593V45.3014C21.09 45.2133 21.77 45.1252 22.535 45.0372V24.2544H20.325V36.7593ZM23.3 45.0372C23.555 45.0372 23.81 45.0372 24.15 45.0372V24.2544H23.3V45.0372Z" fill="black"/>
<path d="M60.91 23.5V14.14H67.02V15.791H62.678V23.5H60.91ZM68.0575 23.5V14.14H74.1675V15.791H69.8255V17.793H73.3875V19.444H69.8255V21.849H74.1675V23.5H68.0575ZM79.3489 23.695C78.4129 23.695 77.6047 23.4913 76.9244 23.084C76.2484 22.6767 75.7262 22.1068 75.3579 21.3745C74.9939 20.6422 74.8119 19.7907 74.8119 18.82C74.8119 17.8493 74.9939 16.9978 75.3579 16.2655C75.7262 15.5332 76.2484 14.9633 76.9244 14.556C77.6047 14.1487 78.4129 13.945 79.3489 13.945C80.2849 13.945 81.0909 14.1487 81.7669 14.556C82.4472 14.9633 82.9694 15.5332 83.3334 16.2655C83.7017 16.9978 83.8859 17.8493 83.8859 18.82C83.8859 19.7907 83.7017 20.6422 83.3334 21.3745C82.9694 22.1068 82.4472 22.6767 81.7669 23.084C81.0909 23.4913 80.2849 23.695 79.3489 23.695ZM79.3489 22.031C79.9425 22.0397 80.4365 21.9118 80.8309 21.6475C81.2252 21.3832 81.5199 21.0083 81.7149 20.523C81.9142 20.0377 82.0139 19.47 82.0139 18.82C82.0139 18.17 81.9142 17.6067 81.7149 17.13C81.5199 16.6533 81.2252 16.2828 80.8309 16.0185C80.4365 15.7542 79.9425 15.6177 79.3489 15.609C78.7552 15.6003 78.2612 15.7282 77.8669 15.9925C77.4725 16.2568 77.1757 16.6317 76.9764 17.117C76.7814 17.6023 76.6839 18.17 76.6839 18.82C76.6839 19.47 76.7814 20.0333 76.9764 20.51C77.1757 20.9867 77.4725 21.3572 77.8669 21.6215C78.2612 21.8858 78.7552 22.0223 79.3489 22.031ZM85.1834 23.5V14.14H91.2934V15.791H86.9514V23.5H85.1834ZM92.3309 23.5V14.14H96.2829C96.3739 14.14 96.4952 14.1443 96.6469 14.153C96.8029 14.1573 96.9416 14.1703 97.0629 14.192C97.6219 14.2787 98.0791 14.4628 98.4344 14.7445C98.7941 15.0262 99.0584 15.3815 99.2274 15.8105C99.3964 16.2352 99.4809 16.7097 99.4809 17.234C99.4809 17.7583 99.3942 18.235 99.2209 18.664C99.0519 19.0887 98.7876 19.4418 98.4279 19.7235C98.0726 20.0052 97.6176 20.1893 97.0629 20.276C96.9416 20.2933 96.8029 20.3063 96.6469 20.315C96.4909 20.3237 96.3696 20.328 96.2829 20.328H94.0989V23.5H92.3309ZM94.0989 18.677H96.2049C96.2959 18.677 96.3956 18.6727 96.5039 18.664C96.6122 18.6553 96.7119 18.638 96.8029 18.612C97.0412 18.547 97.2254 18.4387 97.3554 18.287C97.4854 18.131 97.5742 17.9598 97.6219 17.7735C97.6739 17.5828 97.6999 17.403 97.6999 17.234C97.6999 17.065 97.6739 16.8873 97.6219 16.701C97.5742 16.5103 97.4854 16.3392 97.3554 16.1875C97.2254 16.0315 97.0412 15.921 96.8029 15.856C96.7119 15.83 96.6122 15.8127 96.5039 15.804C96.3956 15.7953 96.2959 15.791 96.2049 15.791H94.0989V18.677ZM99.3616 23.5L102.222 14.14H104.861L107.721 23.5H105.901L103.353 15.245H103.691L101.182 23.5H99.3616ZM101.078 21.55V19.899H106.018V21.55H101.078ZM111.7 23.5V22.135C111.219 22.2173 110.762 22.2 110.328 22.083C109.899 21.9617 109.518 21.7493 109.184 21.446C108.851 21.1383 108.588 20.744 108.398 20.263C108.207 19.7777 108.112 19.21 108.112 18.56C108.112 17.91 108.207 17.3402 108.398 16.8505C108.588 16.3608 108.851 15.96 109.184 15.648C109.518 15.3317 109.899 15.1107 110.328 14.985C110.762 14.8593 111.219 14.8377 111.7 14.92V14.14H113.455V14.92C113.936 14.8377 114.393 14.8593 114.826 14.985C115.26 15.1107 115.643 15.3317 115.977 15.648C116.31 15.96 116.573 16.3608 116.763 16.8505C116.958 17.3402 117.056 17.91 117.056 18.56C117.056 19.21 116.958 19.7777 116.763 20.263C116.573 20.744 116.31 21.1383 115.977 21.446C115.643 21.7493 115.26 21.9617 114.826 22.083C114.393 22.2 113.936 22.2173 113.455 22.135V23.5H111.7ZM111.7 20.523V16.506C111.331 16.4453 111.028 16.4692 110.79 16.5775C110.556 16.6858 110.374 16.8462 110.244 17.0585C110.118 17.2665 110.029 17.5048 109.977 17.7735C109.93 18.0378 109.906 18.3 109.906 18.56C109.906 18.82 109.93 19.0778 109.977 19.3335C110.029 19.5892 110.118 19.8188 110.244 20.0225C110.374 20.2218 110.556 20.3692 110.79 20.4645C111.028 20.5598 111.331 20.5793 111.7 20.523ZM113.455 20.523C113.823 20.5793 114.124 20.5598 114.358 20.4645C114.592 20.3648 114.774 20.2175 114.904 20.0225C115.039 19.8232 115.132 19.6 115.184 19.353C115.236 19.1017 115.262 18.8547 115.262 18.612C115.262 18.3693 115.236 18.1137 115.184 17.845C115.132 17.5763 115.039 17.3315 114.904 17.1105C114.774 16.8852 114.592 16.714 114.358 16.597C114.124 16.4757 113.823 16.4453 113.455 16.506V20.523ZM126.013 23.5H124.219V17.26L120.15 23.5H118.356V14.14H120.15V20.38L124.219 14.14H126.013V23.5ZM133.144 23.5V19.418L133.391 19.821C133.153 20.0333 132.812 20.198 132.37 20.315C131.933 20.4277 131.476 20.484 130.999 20.484C130.219 20.484 129.597 20.3302 129.133 20.0225C128.67 19.7105 128.336 19.2815 128.132 18.7355C127.929 18.1852 127.827 17.5503 127.827 16.831V14.14H129.621V16.298C129.621 16.5797 129.632 16.8678 129.653 17.1625C129.675 17.4572 129.738 17.7302 129.842 17.9815C129.95 18.2328 130.128 18.4365 130.375 18.5925C130.622 18.7442 130.969 18.82 131.415 18.82C131.896 18.82 132.303 18.7377 132.637 18.573C132.971 18.404 133.205 18.2263 133.339 18.04L133.144 18.833V14.14H134.925V23.5H133.144ZM136.739 23.5V14.14H142.849V15.791H138.507V17.793H142.069V19.444H138.507V21.849H142.849V23.5H136.739ZM148.031 23.695C147.095 23.695 146.286 23.4913 145.606 23.084C144.93 22.6767 144.408 22.1068 144.04 21.3745C143.676 20.6422 143.494 19.7907 143.494 18.82C143.494 17.8493 143.676 16.9978 144.04 16.2655C144.408 15.5332 144.93 14.9633 145.606 14.556C146.286 14.1487 147.095 13.945 148.031 13.945C149.105 13.945 150.007 14.2115 150.735 14.7445C151.467 15.2775 151.983 15.999 152.282 16.909L150.501 17.403C150.327 16.8353 150.035 16.3955 149.623 16.0835C149.211 15.7672 148.681 15.609 148.031 15.609C147.437 15.609 146.941 15.7412 146.542 16.0055C146.148 16.2698 145.851 16.6425 145.652 17.1235C145.452 17.6045 145.353 18.17 145.353 18.82C145.353 19.47 145.452 20.0355 145.652 20.5165C145.851 20.9975 146.148 21.3702 146.542 21.6345C146.941 21.8988 147.437 22.031 148.031 22.031C148.681 22.031 149.211 21.8728 149.623 21.5565C150.035 21.2402 150.327 20.8003 150.501 20.237L152.282 20.731C151.983 21.641 151.467 22.3625 150.735 22.8955C150.007 23.4285 149.105 23.695 148.031 23.695ZM153.713 23.5V14.14H155.481V18.456L159.043 14.14H161.201L157.288 18.755L161.448 23.5H159.212L155.481 19.236V23.5H153.713ZM170.015 23.5H168.221V17.26L164.152 23.5H162.358V14.14H164.152V20.38L168.221 14.14H170.015V23.5ZM171.829 23.5V14.14H173.623V20.38L177.692 14.14H179.486V23.5H177.692V17.26L173.623 23.5H171.829ZM175.625 13.36C175.244 13.36 174.897 13.2668 174.585 13.0805C174.273 12.8942 174.024 12.645 173.837 12.333C173.651 12.021 173.558 11.6743 173.558 11.293H174.923C174.923 11.488 174.99 11.6548 175.124 11.7935C175.263 11.9278 175.43 11.995 175.625 11.995C175.82 11.995 175.985 11.9278 176.119 11.7935C176.258 11.6548 176.327 11.488 176.327 11.293H177.692C177.692 11.6743 177.599 12.021 177.412 12.333C177.226 12.645 176.977 12.8942 176.665 13.0805C176.353 13.2668 176.006 13.36 175.625 13.36ZM63.978 39.5V38.135C63.497 38.2173 63.0398 38.2 62.6065 38.083C62.1775 37.9617 61.7962 37.7493 61.4625 37.446C61.1288 37.1383 60.8667 36.744 60.676 36.263C60.4853 35.7777 60.39 35.21 60.39 34.56C60.39 33.91 60.4853 33.3402 60.676 32.8505C60.8667 32.3608 61.1288 31.96 61.4625 31.648C61.7962 31.3317 62.1775 31.1107 62.6065 30.985C63.0398 30.8593 63.497 30.8377 63.978 30.92V30.14H65.733V30.92C66.214 30.8377 66.6712 30.8593 67.1045 30.985C67.5378 31.1107 67.9213 31.3317 68.255 31.648C68.5887 31.96 68.8508 32.3608 69.0415 32.8505C69.2365 33.3402 69.334 33.91 69.334 34.56C69.334 35.21 69.2365 35.7777 69.0415 36.263C68.8508 36.744 68.5887 37.1383 68.255 37.446C67.9213 37.7493 67.5378 37.9617 67.1045 38.083C66.6712 38.2 66.214 38.2173 65.733 38.135V39.5H63.978ZM63.978 36.523V32.506C63.6097 32.4453 63.3063 32.4692 63.068 32.5775C62.834 32.6858 62.652 32.8462 62.522 33.0585C62.3963 33.2665 62.3075 33.5048 62.2555 33.7735C62.2078 34.0378 62.184 34.3 62.184 34.56C62.184 34.82 62.2078 35.0778 62.2555 35.3335C62.3075 35.5892 62.3963 35.8188 62.522 36.0225C62.652 36.2218 62.834 36.3692 63.068 36.4645C63.3063 36.5598 63.6097 36.5793 63.978 36.523ZM65.733 36.523C66.1013 36.5793 66.4025 36.5598 66.6365 36.4645C66.8705 36.3648 67.0525 36.2175 67.1825 36.0225C67.3168 35.8232 67.41 35.6 67.462 35.353C67.514 35.1017 67.54 34.8547 67.54 34.612C67.54 34.3693 67.514 34.1137 67.462 33.845C67.41 33.5763 67.3168 33.3315 67.1825 33.1105C67.0525 32.8852 66.8705 32.714 66.6365 32.597C66.4025 32.4757 66.1013 32.4453 65.733 32.506V36.523ZM69.7307 39.5L72.5907 30.14H75.2297L78.0897 39.5H76.2697L73.7217 31.245H74.0597L71.5507 39.5H69.7307ZM71.4467 37.55V35.899H76.3867V37.55H71.4467ZM79.2547 39.5V30.14H81.0227V34.456L84.5847 30.14H86.7427L82.8297 34.755L86.9897 39.5H84.7537L81.0227 35.236V39.5H79.2547ZM89.0182 39.5L90.3182 36.874L87.1202 30.14H89.1222L91.2412 35.015L93.4382 30.14H95.3232L90.9032 39.5H89.0182ZM94.6643 39.5V38.031C94.8636 38.044 95.0326 38.0267 95.1713 37.979C95.31 37.9313 95.427 37.8447 95.5223 37.719C95.622 37.589 95.7086 37.4113 95.7823 37.186C95.856 36.9563 95.9253 36.6703 95.9903 36.328C96.0943 35.7863 96.181 35.2165 96.2503 34.6185C96.324 34.0162 96.3846 33.4268 96.4323 32.8505C96.48 32.2742 96.5168 31.7498 96.5428 31.2775C96.5688 30.8008 96.5883 30.4217 96.6013 30.14H102.984V39.5H101.216V31.791H98.2263C98.209 32.0337 98.1851 32.35 98.1548 32.74C98.1288 33.13 98.092 33.5612 98.0443 34.0335C97.9966 34.5058 97.9381 34.9955 97.8688 35.5025C97.7995 36.0095 97.715 36.5013 97.6153 36.978C97.5243 37.4417 97.4138 37.8533 97.2838 38.213C97.1538 38.5683 96.9805 38.8608 96.7638 39.0905C96.5515 39.3158 96.2763 39.4653 95.9383 39.539C95.6003 39.6127 95.1756 39.5997 94.6643 39.5ZM104.797 39.5V30.14H106.565V33.312H108.749C108.836 33.312 108.957 33.3163 109.113 33.325C109.269 33.3293 109.408 33.3423 109.529 33.364C110.084 33.4507 110.539 33.6348 110.894 33.9165C111.254 34.1982 111.518 34.5535 111.687 34.9825C111.861 35.4072 111.947 35.8817 111.947 36.406C111.947 36.9303 111.863 37.407 111.694 37.836C111.525 38.2607 111.261 38.6138 110.901 38.8955C110.546 39.1772 110.088 39.3613 109.529 39.448C109.408 39.4653 109.269 39.4783 109.113 39.487C108.962 39.4957 108.84 39.5 108.749 39.5H104.797ZM106.565 37.849H108.671C108.762 37.849 108.862 37.8447 108.97 37.836C109.079 37.8273 109.178 37.81 109.269 37.784C109.508 37.719 109.692 37.6107 109.822 37.459C109.952 37.303 110.041 37.1318 110.088 36.9455C110.14 36.7548 110.166 36.575 110.166 36.406C110.166 36.237 110.14 36.0593 110.088 35.873C110.041 35.6823 109.952 35.5112 109.822 35.3595C109.692 35.2035 109.508 35.093 109.269 35.028C109.178 35.002 109.079 34.9847 108.97 34.976C108.862 34.9673 108.762 34.963 108.671 34.963H106.565V37.849ZM115.297 39.5V31.791H112.346V30.14H120.016V31.791H117.065V39.5H115.297ZM121.06 39.5V30.14H127.17V31.791H122.828V33.793H126.39V35.444H122.828V37.849H127.17V39.5H121.06ZM130.899 39.5V31.791H127.948V30.14H135.618V31.791H132.667V39.5H130.899ZM141.474 39.5V30.14H143.06L146.154 36.354L149.248 30.14H150.834V39.5H149.183V33.91L146.466 39.5H145.842L143.125 33.91V39.5H141.474ZM152.659 39.5V30.14H158.769V31.791H154.427V39.5H152.659ZM160.924 39.5L162.224 36.874L159.026 30.14H161.028L163.147 35.015L165.344 30.14H167.229L162.809 39.5H160.924Z" fill="black"/>
</g>
</svg>

<svg width="181" height="53" viewBox="0 0 181 53" fill="none" xmlns="http://www.w3.org/2000/svg"><g opacity=".7" fill="#000"><path fill-rule="evenodd" clip-rule="evenodd" d="M25.34 6.114h-.17c-.17-.089-.255-.089-.34-.177l.51-.352.51.352c-.085.088-.255.088-.34.176h-.17zm-1.02-1.321c0 .088-.085.704.425 1.056l.17-.616-.595-.44zm2.04 0l-.595.44.17.616c.425-.352.425-.88.425-1.056zm.765 14.618c0-.793-.425-1.409-1.02-1.673l-.085-.088c-.255-.088-.255-.44-.255-.44l.51-1.322c-.085-.352-.425-.44-.425-.44v-.352s.34-.44.255-1.057c0-.088-.425-6.34-.51-7.045a.487.487 0 00.255-.44v-.176c1.275-.705.68-1.938.425-2.114l-.085.088c.085 0 .17.176.255.353h-.765L25.34 4l-.255.793h-.765c.085-.177.17-.353.255-.353l-.085-.088c-.255.176-.935 1.321.425 2.114v.176c0 .176.085.352.255.44-.085.617-.51 6.957-.51 7.045-.085.617.17 1.057.17 1.057v.264s-.34.088-.425.44l.51 1.321s0 .353-.255.44c-.68.265-1.19.97-1.19 1.762v1.497h-.765v2.378h5.185v-2.378h-.765v-1.497zm-.68 25.626h.85V24.254h-.85v20.783zM40.47 32.62v15.411c.51.176 1.02.44 1.53.705V32.62h-1.53zm-2.975 0H35.2v13.65c1.53.44 3.06.88 4.505 1.497V31.211h-2.21v1.41zm-6.63 12.77c1.19.176 2.295.352 3.4.616v-8.278h-3.4v7.661zm-2.805-.265c.68.088 1.275.088 1.955.176V24.254H28.06v20.871zM12.59 31.211h-2.295v16.732c1.445-.616 2.975-1.145 4.505-1.497V32.62h-2.21v-1.409zm3.145 14.971c1.19-.264 2.38-.528 3.655-.705v-7.749h-3.655v8.454zM8 49c.51-.264 1.02-.528 1.53-.705V32.62H8V49zm16.915-4.05h.85V24.253h-.85V44.95zm-4.59-8.19v8.54c.765-.088 1.445-.176 2.21-.264V24.254h-2.21V36.76zm2.975 8.277h.85V24.254h-.85v20.783z"/><path d="M60.91 23.5v-9.36h6.11v1.651h-4.342V23.5H60.91zm7.148 0v-9.36h6.11v1.651h-4.343v2.002h3.563v1.651h-3.563v2.405h4.343V23.5h-6.11zm11.29.195c-.935 0-1.743-.204-2.424-.611a4.098 4.098 0 01-1.566-1.71c-.364-.732-.546-1.583-.546-2.554 0-.97.182-1.822.546-2.555a4.098 4.098 0 011.566-1.709c.68-.407 1.489-.611 2.425-.611.936 0 1.742.204 2.418.611.68.407 1.202.977 1.566 1.71.369.732.553 1.583.553 2.554 0 .97-.184 1.822-.553 2.555a4.043 4.043 0 01-1.566 1.709c-.676.407-1.482.611-2.418.611zm0-1.664c.594.009 1.088-.12 1.483-.383.394-.265.689-.64.884-1.125.2-.485.299-1.053.299-1.703 0-.65-.1-1.213-.3-1.69a2.386 2.386 0 00-.883-1.111c-.395-.265-.889-.401-1.482-.41-.594-.009-1.088.12-1.482.383-.395.265-.691.64-.89 1.125-.196.485-.293 1.053-.293 1.703 0 .65.097 1.213.292 1.69.2.477.496.847.89 1.111.395.265.89.401 1.483.41zm5.835 1.469v-9.36h6.11v1.651h-4.342V23.5h-1.768zm7.148 0v-9.36h3.952c.09 0 .212.004.364.013.156.004.295.017.416.039.559.087 1.016.27 1.371.553.36.281.624.637.793 1.066.17.424.254.899.254 1.423s-.087 1.001-.26 1.43a2.494 2.494 0 01-.793 1.06c-.355.281-.81.465-1.365.552a6.964 6.964 0 01-.78.052h-2.184V23.5H92.33zm1.768-4.823h2.106c.09 0 .19-.004.299-.013.108-.009.208-.026.299-.052.238-.065.422-.173.552-.325.13-.156.22-.327.267-.514.052-.19.078-.37.078-.539 0-.169-.026-.347-.078-.533a1.243 1.243 0 00-.267-.514 1.057 1.057 0 00-.552-.331 1.536 1.536 0 00-.3-.052 3.754 3.754 0 00-.298-.013h-2.106v2.886zm5.263 4.823l2.86-9.36h2.639l2.86 9.36h-1.82l-2.548-8.255h.338l-2.509 8.255h-1.82zm1.716-1.95v-1.651h4.94v1.651h-4.94zM111.7 23.5v-1.365a3.163 3.163 0 01-1.372-.052 2.823 2.823 0 01-1.144-.637 3.164 3.164 0 01-.786-1.183c-.191-.485-.286-1.053-.286-1.703 0-.65.095-1.22.286-1.71.19-.49.453-.89.786-1.202a2.782 2.782 0 011.144-.663 3.033 3.033 0 011.372-.065v-.78h1.755v.78c.481-.082.938-.06 1.371.065.434.126.817.347 1.151.663.333.312.596.713.786 1.203.195.49.293 1.059.293 1.709 0 .65-.098 1.218-.293 1.703-.19.481-.453.875-.786 1.183a2.817 2.817 0 01-1.151.637c-.433.117-.89.134-1.371.052V23.5H111.7zm0-2.977v-4.017c-.369-.06-.672-.037-.91.072a1.23 1.23 0 00-.546.48 2.16 2.16 0 00-.267.715 4.27 4.27 0 000 1.56c.052.256.141.486.267.69.13.199.312.346.546.442.238.095.541.114.91.058zm1.755 0c.368.056.669.037.903-.058.234-.1.416-.247.546-.442.135-.2.228-.423.28-.67a3.65 3.65 0 000-1.508 2.196 2.196 0 00-.28-.735 1.275 1.275 0 00-.546-.513c-.234-.121-.535-.152-.903-.091v4.017zm12.558 2.977h-1.794v-6.24l-4.069 6.24h-1.794v-9.36h1.794v6.24l4.069-6.24h1.794v9.36zm7.131 0v-4.082l.247.403c-.238.212-.579.377-1.021.494a5.47 5.47 0 01-1.371.169c-.78 0-1.402-.154-1.866-.462a2.61 2.61 0 01-1.001-1.287c-.203-.55-.305-1.185-.305-1.904V14.14h1.794v2.158c0 .282.011.57.032.865.022.294.085.567.189.819.108.25.286.454.533.61.247.152.594.228 1.04.228.481 0 .888-.082 1.222-.247.334-.169.568-.347.702-.533l-.195.793V14.14h1.781v9.36h-1.781zm3.595 0v-9.36h6.11v1.651h-4.342v2.002h3.562v1.651h-3.562v2.405h4.342V23.5h-6.11zm11.292.195c-.936 0-1.745-.204-2.425-.611a4.095 4.095 0 01-1.566-1.71c-.364-.732-.546-1.583-.546-2.554 0-.97.182-1.822.546-2.555a4.095 4.095 0 011.566-1.709c.68-.407 1.489-.611 2.425-.611 1.074 0 1.976.266 2.704.8.732.533 1.248 1.254 1.547 2.164l-1.781.494c-.174-.568-.466-1.008-.878-1.32-.412-.316-.942-.474-1.592-.474-.594 0-1.09.132-1.489.397a2.42 2.42 0 00-.89 1.117c-.2.482-.299 1.047-.299 1.697 0 .65.099 1.215.299 1.697.199.48.496.853.89 1.117.399.265.895.397 1.489.397.65 0 1.18-.158 1.592-.474.412-.317.704-.757.878-1.32l1.781.494c-.299.91-.815 1.631-1.547 2.164-.728.534-1.63.8-2.704.8zm5.682-.195v-9.36h1.768v4.316l3.562-4.316h2.158l-3.913 4.615 4.16 4.745h-2.236l-3.731-4.264V23.5h-1.768zm16.302 0h-1.794v-6.24l-4.069 6.24h-1.794v-9.36h1.794v6.24l4.069-6.24h1.794v9.36zm1.814 0v-9.36h1.794v6.24l4.069-6.24h1.794v9.36h-1.794v-6.24l-4.069 6.24h-1.794zm3.796-10.14a1.99 1.99 0 01-1.04-.28 2.136 2.136 0 01-.748-.747 1.993 1.993 0 01-.279-1.04h1.365c0 .195.067.362.201.5a.695.695 0 00.501.202c.195 0 .36-.067.494-.201a.681.681 0 00.208-.501h1.365c0 .381-.093.728-.28 1.04a2.125 2.125 0 01-.747.748 1.99 1.99 0 01-1.04.279zM63.978 39.5v-1.365a3.16 3.16 0 01-1.372-.052 2.821 2.821 0 01-1.144-.637 3.165 3.165 0 01-.786-1.183c-.19-.485-.286-1.053-.286-1.703 0-.65.095-1.22.286-1.71.19-.49.453-.89.786-1.202a2.78 2.78 0 011.144-.663 3.03 3.03 0 011.372-.065v-.78h1.755v.78a3.03 3.03 0 011.371.065c.434.126.817.347 1.151.663.334.312.596.713.787 1.202.195.49.292 1.06.292 1.71 0 .65-.097 1.218-.293 1.703-.19.481-.452.875-.786 1.183a2.818 2.818 0 01-1.15.637 3.16 3.16 0 01-1.372.052V39.5h-1.755zm0-2.977v-4.017c-.368-.06-.672-.037-.91.072a1.23 1.23 0 00-.546.48 2.165 2.165 0 00-.267.715 4.421 4.421 0 00-.071.787c0 .26.024.518.072.773.051.256.14.486.266.69.13.199.312.346.546.441.238.096.542.115.91.059zm1.755 0c.368.056.67.037.903-.059.235-.1.416-.246.547-.441.134-.2.227-.423.279-.67a3.65 3.65 0 000-1.508 2.21 2.21 0 00-.28-.734 1.275 1.275 0 00-.546-.514c-.233-.121-.535-.152-.903-.091v4.017zm3.998 2.977l2.86-9.36h2.639l2.86 9.36h-1.82l-2.548-8.255h.338L71.55 39.5h-1.82zm1.716-1.95v-1.651h4.94v1.651h-4.94zm7.808 1.95v-9.36h1.768v4.316l3.562-4.316h2.158l-3.913 4.615 4.16 4.745h-2.236l-3.731-4.264V39.5h-1.768zm9.763 0l1.3-2.626-3.198-6.734h2.002l2.12 4.875 2.196-4.875h1.885l-4.42 9.36h-1.885zm5.646 0v-1.469c.2.013.369-.004.507-.052a.735.735 0 00.351-.26c.1-.13.187-.308.26-.533a7.34 7.34 0 00.208-.858 23.3 23.3 0 00.26-1.71 52.467 52.467 0 00.292-3.341c.027-.476.046-.855.06-1.137h6.382v9.36h-1.768v-7.709h-2.99c-.017.243-.04.559-.071.949a42.085 42.085 0 01-.286 2.762c-.07.508-.154 1-.254 1.476a8.422 8.422 0 01-.331 1.235c-.13.355-.303.648-.52.877a1.558 1.558 0 01-.826.449c-.338.074-.762.06-1.274-.039zm10.133 0v-9.36h1.768v3.172h2.184c.087 0 .208.004.364.013.156.004.295.017.416.039.555.087 1.01.27 1.365.553.36.281.624.636.793 1.066.174.424.26.899.26 1.423s-.084 1.001-.253 1.43a2.491 2.491 0 01-.793 1.06c-.355.281-.813.465-1.372.552a6.646 6.646 0 01-.78.052h-3.952zm1.768-1.651h2.106c.091 0 .191-.004.299-.013a1.55 1.55 0 00.299-.052c.239-.065.423-.173.553-.325.13-.156.219-.327.266-.514.052-.19.078-.37.078-.539 0-.169-.026-.347-.078-.533a1.234 1.234 0 00-.266-.514 1.056 1.056 0 00-.553-.331 1.527 1.527 0 00-.299-.052 3.748 3.748 0 00-.299-.013h-2.106v2.886zm8.732 1.651v-7.709h-2.951V30.14h7.67v1.651h-2.951V39.5h-1.768zm5.763 0v-9.36h6.11v1.651h-4.342v2.002h3.562v1.651h-3.562v2.405h4.342V39.5h-6.11zm9.839 0v-7.709h-2.951V30.14h7.67v1.651h-2.951V39.5h-1.768zm10.575 0v-9.36h1.586l3.094 6.214 3.094-6.214h1.586v9.36h-1.651v-5.59l-2.717 5.59h-.624l-2.717-5.59v5.59h-1.651zm11.185 0v-9.36h6.11v1.651h-4.342V39.5h-1.768zm8.265 0l1.3-2.626-3.198-6.734h2.002l2.119 4.875 2.197-4.875h1.885l-4.42 9.36h-1.885z"/></g></svg>
